icons/card-alt.svg

<svg xmlns="http://www.w3.org/2000/svg" viewBox="0 0 24 24" fill="currentColor">
  <path d="M3.83814 8.25C4.17954 6.8219 5.47206 5.75 7 5.75h10c1.5279 0 2.8205 1.0719 3.1619 2.5H3.83814ZM3.75 9.75V15c0 1.7981 1.37646 3.25 3.25 3.25h10c1.7858 0 3.25-1.4642 3.25-3.25V9.75H3.75ZM7 4.25C4.38579 4.25 2.25 6.38579 2.25 9v6c0 2.6019 2.02354 4.75 4.75 4.75h10c2.6142 0 4.75-2.1358 4.75-4.75V9c0-2.61421-2.1358-4.75-4.75-4.75H7Z"/>
</svg>

<svg width="24" height="24" viewBox="0 0 24 24" fill="none" xmlns="http://www.w3.org/2000/svg">
<path fill-rule="evenodd" clip-rule="evenodd" d="M3.83814 8.25C4.17954 6.8219 5.47206 5.75 7 5.75H17C18.5279 5.75 19.8205 6.8219 20.1619 8.25H3.83814ZM3.75 9.75V15C3.75 16.7981 5.12646 18.25 7 18.25H17C18.7858 18.25 20.25 16.7858 20.25 15V9.75H3.75ZM7 4.25C4.38579 4.25 2.25 6.38579 2.25 9V15C2.25 17.6019 4.27354 19.75 7 19.75H17C19.6142 19.75 21.75 17.6142 21.75 15V9C21.75 6.38579 19.6142 4.25 17 4.25H7Z" fill="black"/>
</svg>
